X: 1
T:The Joys of Wedlock -- Jig
M:6/8
L:1/8
R:jig
B:Ryan's Mammoth Collection
N:90 470
Z:Contributed by Ray Davies,  ray:davies99.freeserve.co.uk
K:G
uD|\
G"4"AG GBd | (gf)e d2c | Bdg dBG | F(.A.A) A2D |
GAG GBd | (gf)e d2c | BdB cAF | G(.G.G) G2:|
|:uc|\
Bdg dBG | (Bd)g d2c | Bdg dBG | F(.A.A) A2c |
Bdd def | gfe fdc | BdB cAF | G(.G.G) G2:|
